!!!!SEGMENT: pl-sa--268-a-vii-28--004_siwinski-andrzej--salve-horologium.krn
!!!cenid: 17xx:316
!!!COM: Siwiński, Andrzej
!!!COM-rismID: pe41011487
!!!CDT: <1725->1725
!!!CNT:
!!!OTL: Salve horologium
!!!PDT: 1729
!!!AGN: Sacred
!!!SMS-siglum: PL-SA
!!!SMS-shelfmark: 268/A VII 28
!!!SMS-shelfwork: 004 W
!!!NIFC-rismSourceID: 1001069566
!!!NIFC-rismChildID: 1001069566
!!!NIFC-islandoraID: none
!!!URL-pdf-islandora:
!!!URL-scan: https://bc.bdsandomierz.pl/dlibra/publication/1751/edition/1719/content @EN{Scan in the Sandomierz Diocese Digital Library} @PL{Skany w portalu Cyfrowa Biblioteka Diecezjalna w Sandomierzu}
!!!IIIF:
!!!ONB-nifc:
!!!AIN: 1 alto 1 empty 1 organ 1 soprn 1 tenor 2 violn
!!!key:
**kern	**fba	**kern	**kern	**kern	**text	**kern	**text	**kern	**text	**kern	**text
*part7	*part7	*part6	*part5	*part4	*part4	*part3	*part3	*part2	*part2	*part1	*part1
*staff7	*staff7	*staff6	*staff5	*staff4	*staff4	*staff3	*staff3	*staff2	*staff2	*staff1	*staff1
*Iorgan	*	*Ivioln	*Ivioln	*Iempty	*	*Itenor	*	*Ialto	*	*Isoprn	*
*I"Baſso (et) Organo	*	*I"Violino 2do	*I"Violino 1mo	*I"Baſso	*	*I"Tenore	*	*I"Alto	*	*I"Soprano	*
*I'Baſso	*	*I'V-no II	*I'V-no I	*I'B.	*	*I'T.	*	*I'A.	*	*I'S.	*
*clefF4	*	*clefG2	*clefG2	*clefF4	*	*clefC4	*	*clefC3	*	*clefC1	*
*k[f#]	*	*k[f#]	*k[f#]	*k[f#]	*	*k[f#]	*	*k[f#]	*	*k[f#]	*
*G:	*	*G:	*G:	*G:	*	*G:	*	*G:	*	*G:	*
*M4/4	*	*M4/4	*M4/4	*M2/2	*	*M4/4	*	*M4/4	*	*M4/4	*
*met(c)	*	*met(c)	*met(c)	*met(c|)	*	*met(c)	*	*met(c)	*	*met(c)	*
=1	=1	=1	=1	=1	=1	=1	=1	=1	=1	=1	=1
*2\right	*	*2\right	*2\right	*	*	*	*	*	*	*2\right	*
!	!	!	!LO:TX:a:t=P:problem=wszystkie kaudy po prawej stronie	!	!	!	!	!	!	!	!
!LO:TX:a:t=P:problem=w źródle znak przykluczowy f# zapisany w dwóch oktawach	!	!LO:TX:a:t=P:problem=w źródle znak przykluczowy f# zapisany w dwóch oktawach	!LO:TX:a:t=P:problem=w źródle znak przykluczowy f# zapisany w dwóch oktawach	!	!	!LO:TX:a:t=P:problem=w źródle znak przykluczowy f# zapisany w dwóch oktawach	!	!	!	!	!
!	!	!LO:TX:b:Bi:t=ſalve Horologium Tacet:dur:10w:ext=s:problem::problem=text with extention lines&colon;napis zaczyna się przed kluczem i oznaczeniem metrum	!LO:TX:a:Bi:t=ſalve \nHorologium Tacet	!LO:TX:a:Bi:t=ſalve \nHorolo\ngium TC	!	!LO:TX:a:Bi:t=ſalve Horologium \nTacet	!	!LO:TX:a:Bi:t=ſalve Horogium \nTC.	!	!	!
!LO:TX:a:Bi:t=ſolo	!	!	!LO:TX:b:Bi:t=canto&colon;	!	!	!	!	!	!	!	!
!LO:TX:b:Bi:t=ſalve Horologium	!	!	!	!	!	!	!	!	!	!	!
4E\	.	1ryy	1ryy	1ryy	.	1ryy	.	1ryy	.	4r	.
!	!	!	!	!	!	!	!	!	!	!LO:TX:a:Bi:t=ſ.	!
8E\L	.	.	.	.	.	.	.	.	.	8g\	ſal-
8F#\J	.	.	.	.	.	.	.	.	.	8a\	-ve
!LO:TX:a:Bi:t=Adagio	!	!	!	!	!	!	!	!	!	!	!
8G\L	.	.	.	.	.	.	.	.	.	4.b\	ſal-
8F#\	.	.	.	.	.	.	.	.	.	.	.
8G\	.	.	.	.	.	.	.	.	.	.	.
8E\J	.	.	.	.	.	.	.	.	.	16cc\LL	.
.	.	.	.	.	.	.	.	.	.	16b\JJ	.
=2	=2	=2	=2	=2	=2	=2	=2	=2	=2	=2	=2
8F#\L	6	1ryy	1ryy	1ryy	.	1ryy	.	1ryy	.	4.a\	.
8E\	.	.	.	.	.	.	.	.	.	.	.
8D#X\	6	.	.	.	.	.	.	.	.	.	.
8BB\J	.	.	.	.	.	.	.	.	.	16b\LL	.
.	.	.	.	.	.	.	.	.	.	16a\JJ	.
8E\L	.	.	.	.	.	.	.	.	.	8g/	.
8F#\	.	.	.	.	.	.	.	.	.	8e/	-ve
8G\	.	.	.	.	.	.	.	.	.	8g\	ho-
8E\J	.	.	.	.	.	.	.	.	.	8a\	-ro-
=3	=3	=3	=3	=3	=3	=3	=3	=3	=3	=3	=3
2D#X\	6	1ryy	1ryy	1ryy	.	1ryy	.	1ryy	.	8.b\	-lo-
.	.	.	.	.	.	.	.	.	.	16b\	-gi-
.	.	.	.	.	.	.	.	.	.	4b\	-um
4G\	.	.	.	.	.	.	.	.	.	4r	.
8G\L	.	.	.	.	.	.	.	.	.	8b\	ſal-
8A\J	.	.	.	.	.	.	.	.	.	8cc\	-ve
=4	=4	=4	=4	=4	=4	=4	=4	=4	=4	=4	=4
8B\L	.	1ryy	1ryy	1ryy	.	1ryy	.	1ryy	.	4.dd\	ſal-
8A\	.	.	.	.	.	.	.	.	.	.	.
8B\	.	.	.	.	.	.	.	.	.	.	.
8G\J	.	.	.	.	.	.	.	.	.	16ee\LL	.
.	.	.	.	.	.	.	.	.	.	16dd\JJ	.
!	!	!	!	!	!	!	!	!	!	!LO:LB:g=original	!
8A\L	.	.	.	.	.	.	.	.	.	4.cc\	.
8G\	.	.	.	.	.	.	.	.	.	.	.
8F#\	.	.	.	.	.	.	.	.	.	.	.
8D\J	7	.	.	.	.	.	.	.	.	16dd\LL	.
.	.	.	.	.	.	.	.	.	.	16cc\JJ	.
=5	=5	=5	=5	=5	=5	=5	=5	=5	=5	=5	=5
8G\L	.	1ryy	1ryy	1ryy	.	1ryy	.	1ryy	.	8b\	-ve
8A\	.	.	.	.	.	.	.	.	.	8g\	.
8B\	.	.	.	.	.	.	.	.	.	8b\	ho-
8G\J	.	.	.	.	.	.	.	.	.	8cc\	-ro-
2F#\	6	.	.	.	.	.	.	.	.	8.dd\	-lo-
.	.	.	.	.	.	.	.	.	.	16dd\	-gi-
.	.	.	.	.	.	.	.	.	.	4dd\	-um
=6	=6	=6	=6	=6	=6	=6	=6	=6	=6	=6	=6
8c\L	6	1ryy	1ryy	1ryy	.	1ryy	.	1ryy	.	8ee\	quo
8B\	6	.	.	.	.	.	.	.	.	8dd\	re-
8A\	6	.	.	.	.	.	.	.	.	8cc\	-tro
8G\J	6	.	.	.	.	.	.	.	.	8b\	tra-
!LO:LB:g=original	!	!	!	!	!	!	!	!	!	!	!
!LO:TX:a:t=P:problem=mixed beam	!	!	!	!	!	!	!	!	!	!	!
8F#\L	.	.	.	.	.	.	.	.	.	16a\LL	-ha-
.	.	.	.	.	.	.	.	.	.	16b\	.
8G\	.	.	.	.	.	.	.	.	.	16cc\	.
.	.	.	.	.	.	.	.	.	.	16dd\JJ	.
8D\	.	.	.	.	.	.	.	.	.	4a\	.
8DD/J	.	.	.	.	.	.	.	.	.	.	.
=7	=7	=7	=7	=7	=7	=7	=7	=7	=7	=7	=7
8GG/L	.	1ryy	1ryy	1ryy	.	1ryy	.	1ryy	.	4g/	-tur
8BB/	.	.	.	.	.	.	.	.	.	.	.
8C/	.	.	.	.	.	.	.	.	.	4r	.
8D/J	.	.	.	.	.	.	.	.	.	.	.
4GG/	.	.	.	.	.	.	.	.	.	4r	.
8E\L	.	.	.	.	.	.	.	.	.	8b\	quo
8F#\J	.	.	.	.	.	.	.	.	.	8a\	re-
=8	=8	=8	=8	=8	=8	=8	=8	=8	=8	=8	=8
!LO:TX:a:t=P:problem=mixed beam	!	!	!	!	!	!	!	!	!	!	!
8G\L	.	1ryy	1ryy	1ryy	.	1ryy	.	1ryy	.	8g\	-tro
8A\	.	.	.	.	.	.	.	.	.	8a\	tra-
!	!	!	!	!	!	!	!	!	!	!LO:LB:g=original	!
8B\	.	.	.	.	.	.	.	.	.	4f#/	-ha-
8BB/J	.	.	.	.	.	.	.	.	.	.	.
4E\	.	.	.	.	.	.	.	.	.	4e/	-tur
4r	.	.	.	.	.	.	.	.	.	4r	.
!	!	!LO:TX:a:t=P:problem=w źródle brakuje kreski taktowej po Tacet	!LO:TX:a:t=P:problem=w źródle brakuje kreski taktowej po Tacet	!	!	!LO:TX:a:t=P:problem=w źródle brakuje kreski taktowej po Tacet	!	!LO:TX:a:t=P:problem=w źródle brakuje kreski taktowej po TC.	!	!	!
!	!	!	!LO:LB:g=original	!	!	!LO:LB:g=original	!	!LO:LB:g=original	!	!	!
=9||	=9||	=9	=9	=9||	=9||	=9	=9	=9	=9	=9||	=9||
*M4/4	*	*M2/2	*M4/4	*M4/4	*	*M4/4	*	*M4/4	*	*M4/4	*
*met(c)	*	*met(c|)	*met(c)	*met(c)	*	*met(c)	*	*met(c)	*	*met(c)	*
!	!	!	!	!LO:TX:a:t=P:problem=w źródle dwa znaki przykluczowe k[f#c#] w głosie Baſso	!	!	!	!	!	!	!
!	!	!LO:TX:a:t=P:problem=w źródle metrum alla breve	!	!	!	!	!	!	!	!	!
!	!	!LO:TX:b:Bi:t=ſol in decem lineris	!LO:TX:b:Bi:t=ſol in decem	!	!	!	!	!	!	!	!
!LO:TX:a:Bi:t=Tutti	!	!LO:TX:a:Bi:t=Tutti	!LO:TX:a:Bi:t=Tutti	!	!	!	!	!	!	!	!
4GG/	.	8b\L	8dd\L	4G\	ſol	4G/	ſol	4d\	ſol	4b\	ſol
.	.	16b\L	16dd\L	.	.	.	.	.	.	.	.
.	.	16b\JJ	16dd\JJ	.	.	.	.	.	.	.	.
8r	.	8b\L	8dd\L	8r	.	8r	.	8r	.	8r	.
8GG/	.	8b\J	8dd\J	8G\	in	8G/	in	8d\	in	8b\	in
8C/L	.	4cc\	4ee\	8c\	de-	8c\	de-	8e\	de-	8g\	e-
8C/	.	.	.	8c\	-c(em)	8G/	-c(em)	8e\	-c(em)	8a\	-cem
8C/	.	4r	4r	8c\	li-	8c\	li-	8e\	li-	8b\	li-
8BB/J	6	.	.	8B\	-ne-	8B\	-ne-	8e\	-ne-	8g\	-ne-
=10	=10	=10	=10	=10	=10	=10	=10	=10	=10	=10	=10
4AA/	.	8cc\L	8ee\L	4A\	-is	4A/	-is	4e\	-is	4cc\	-is
.	.	16cc\L	16ee\L	.	.	.	.	.	.	.	.
.	.	16cc\JJ	16ee\JJ	.	.	.	.	.	.	.	.
8r	.	8cc\L	8ee\L	8r	.	8r	.	8r	.	8r	.
8AA/	.	8cc\J	8ee\J	8A\	in	8A\	in	8e\	in	8cc\	in
8D/L	.	4dd\	4ff#\	8d\	de-	8d\	de-	8f#\	de-	8a\	de-
8D/	.	.	.	8d\	-c(em)	8A\	-c(em)	8f#\	-c(em)	8b\	-cem
8D/	.	4r	4r	8d\	li-	8d\	li-	8f#\	li-	8cc\	li-
8C/J	.	.	.	8c\	-ne-	8c\	-ne-	8f#\	-ne-	8a\	-ne-
=11	=11	=11	=11	=11	=11	=11	=11	=11	=11	=11	=11
4BB/	6	4r	4r	4B\	-is	4B\	-is	4g\	-is	4dd\	-is
8F#\L	6	8dd\L	8dd\L	8F#\	ver-	8d\	ver-	8a\	Ver-	8dd\	Ver-
8F#\J	.	8dd\J	8aa\J	8F#\	-b(um)	8c\	-b(um)	8a,\	-b(um)	8dd\	-b(um)
*custos:G	*	*	*	*	*	*	*	*	*	*	*
!LO:LB:g=original	!	!	!	!	!	!	!	!	!	!	!
!LO:TX:a:t=P:problem=mixed beam	!	!	!	!	!	!	!	!	!	!	!
!	!	!	!	!	!	!	!LO:MO:mod=in-	!	!LO:MO:mod=in-	!	!
8G\L	.	16ee\LL	8bb\L	8G\	in-	8B\	in	8g,\	in	(>16ee\LL	in-
.	.	16dd\	.	.	.	.	.	.	.	16dd\JJ)	.
!	!	!	!	!	!	!	!LO:MO:mod=-car-	!	!LO:MO:mod=-car-	!	!
8C\	.	16cc\	8gg\J	8G\	-car-	8c\	car-	8g\	car-	(>16cc\LL	-car-
.	.	16b\JJ	.	.	.	.	.	.	.	16b\JJ)	.
!	!	!	!	!	!	!	!	!	!	!LO:LB:g=original	!
8D\	.	4a/	4ff#\	4A\	-na-	4A\	-na-	4f#\	-na-	4a\	-na-
8DD/J	.	.	.	.	.	.	.	.	.	.	.
!	!	!	!	!	!	!	!	!LO:LB:g=original	!	!	!
=12	=12	=12	=12	=12	=12	=12	=12	=12	=12	=12	=12
!	!	!	!	!	!	!LO:TX:a:t=P:problem=w źródle cauda nuty 4B po prawej stronie	!	!	!	!	!
4GG/	.	8b/L	8gg\L	4GG/	-tur	4B\	-tur	4g\	-tur	4g/	-tur
.	.	16g/L	16b\L	.	.	.	.	.	.	.	.
.	.	16g/JJ	16b\JJ	.	.	.	.	.	.	.	.
4r	.	8g/L	8b\L	4r	.	4r	.	4r	.	4r	.
.	.	8b/J	8dd\J	.	.	.	.	.	.	.	.
8c\L	.	4cc\	4ee\	2r	.	2r	.	2r	.	2r	.
16c\L	.	.	.	.	.	.	.	.	.	.	.
16c\JJ	.	.	.	.	.	.	.	.	.	.	.
8c\L	.	4r	4r	.	.	.	.	.	.	.	.
8B\J	.	.	.	.	.	.	.	.	.	.	.
=13	=13	=13	=13	=13-	=13-	=13	=13	=13-	=13-	=13	=13
4A\	6	8a/L	8cc\L	0r	.	0r	.	0r	.	0r	.
.	.	16e/L	16a\L	.	.	.	.	.	.	.	.
.	.	16f#/JJ	16a\JJ	.	.	.	.	.	.	.	.
4r	.	8f#/L	8a\L	.	.	.	.	.	.	.	.
.	.	8a/J	8cc\J	.	.	.	.	.	.	.	.
8B\L	.	4b\	4dd\	.	.	.	.	.	.	.	.
16B\L	.	.	.	.	.	.	.	.	.	.	.
16B\JJ	.	.	.	.	.	.	.	.	.	.	.
8B\L	.	4r	4r	.	.	.	.	.	.	.	.
8A\J	.	.	.	.	.	.	.	.	.	.	.
!	!	!LO:LB:g=original	!	!	!	!	!	!	!	!	!
=14	=14	=14	=14	=14	=14	=14	=14	=14	=14	=14	=14
4G\	.	8g/L	8b/L	.	.	.	.	.	.	.	.
.	.	16d/L	16g/L	.	.	.	.	.	.	.	.
.	.	16d/JJ	16g/JJ	.	.	.	.	.	.	.	.
8r	.	8g/L	8b\L	.	.	.	.	.	.	.	.
8G\	.	8b/J	8dd\J	.	.	.	.	.	.	.	.
8BB/L	.	8cc/L	16ee\LL	.	.	.	.	.	.	.	.
.	.	.	16dd\	.	.	.	.	.	.	.	.
8C/	.	8e/J	16cc\	.	.	.	.	.	.	.	.
.	.	.	16b\JJ	.	.	.	.	.	.	.	.
8D/	.	4f#/	8.a/L	.	.	.	.	.	.	.	.
8DD/J	.	.	.	.	.	.	.	.	.	.	.
.	.	.	16g/Jk	.	.	.	.	.	.	.	.
=15	=15	=15	=15	=15-	=15-	=15-	=15-	=15-	=15-	=15-	=15-
!	!	!	!LO:TX:a:t=P:problem=mixed beam	!	!	!	!	!	!	!	!
4GG/	.	4g/	8g/L	2r	.	2r	.	2r	.	2r	.
.	.	.	16dd\L	.	.	.	.	.	.	.	.
.	.	.	16ee\JJ	.	.	.	.	.	.	.	.
8r	.	8r	8ff#\L	.	.	.	.	.	.	.	.
8AA/	.	8e/	8cc#X\J	.	.	.	.	.	.	.	.
!	!	!	!LO:LB:g=original	!	!	!LO:LB:g=original	!	!	!	!	!
!	!	!LO:TX:a:t=P:problem=mixed beam	!	!	!	!	!	!	!	!	!
4D/	.	8f#/L	8dd\L	4D\	ſol	4d\	ſol	4f#\	ſol	4a\	ſol
!	!	!	!LO:TX:b:Bi:t=Verte Cito	!	!	!	!	!	!	!	!
.	.	16ff#\L	16aa\L	.	.	.	.	.	.	.	.
.	.	16ff#\JJ	16aa\JJ	.	.	.	.	.	.	.	.
8r	.	8ff#\L	8aa\L	8r	.	8r	.	8r	.	8r	.
8D/	.	8ff#\J	8aa\J	8D\	in	8d\	in	8f#\	in	8a\	in
!	!	!	!	!LO:LB:g=original	!	!	!	!	!	!	!
=16	=16	=16	=16	=16	=16	=16	=16	=16	=16	=16	=16
8G\L	.	4gg\	4bb\	8G\	de-	8G/	de-	8d\	de-	8b\	de-
8G\	.	.	.	8G\	-c(em)	8G/	-c(em)	8d\	-c(em)	8b\	-cem
8G\	.	4r	4r	8G\	li-	8G/	li-	8d\	li-	8b\	li-
8F#\J	.	.	.	8F#\	-ne-	8A/	-ne-	8d\	-ne-	8a\	-ne-
!	!	!	!LO:PB:g=original	!	!	!	!	!	!	!	!
4E\	.	8gg\L	8bb\L	4E\	-is	4B\	-is	4e\	-is	4g\	-is
.	.	16gg\L	16bb\L	.	.	.	.	.	.	.	.
.	.	16gg\JJ	16bb\JJ	.	.	.	.	.	.	.	.
8r	.	8gg\L	8bb\L	8r	.	8r	.	8r	.	8r	.
8E\	.	8gg\J	8bb\J	8E\	in	8B\	in	8e\	in	8g\	in
!LO:LB:g=original	!	!	!	!	!	!	!	!	!	!	!
=17	=17	=17	=17	=17	=17	=17	=17	=17	=17	=17	=17
8A\L	.	4aa\	4ccc#X\	8A\	de-	8A\	de-	8e\	de-	8cc#X\	de-
8A\	.	.	.	8A\	-c(em)	8A\	-cem	8e\	-c(em)	8cc#\	-cem
8A\	.	4r	4rdd	8A\	li-	8A\	li-	8e\	li-	8cc#\	li-
8G\J	.	.	.	8G\	-ne-	8B\	-ne-	8e\	-ne-	8b\	-ne-
4F#\	6	4r	4r	4F#\	-is	4A\	-is	4d,\	-is	4a\	-is
8C#X/L	6	8a/L	8ee\L	8c#X\	ver-	8c#X\	ver-	8e\	Ver-	8a\	ver-
8C#/J	.	8a/J	8ee\J	8c#\	-b(um)	8A\	-b(um)	8e\	-bum	8a\	-b(um)
!	!	!	!	!	!	!	!	!LO:LB:g=original	!	!	!
=18	=18	=18	=18	=18	=18	=18	=18	=18	=18	=18	=18
!LO:TX:a:t=P:problem=mixed beam	!	!	!	!	!	!	!	!	!	!	!
8D\L	.	8dd\L	16ff#\LL	8d\	in-	8d\	in-	8f#\	in-	8a\	in-
.	.	.	16aa\	.	.	.	.	.	.	.	.
!	!	!	!	!	!	!	!	!	!	!LO:LB:g=original	!
8G\	6	8dd\J	16gg\	8G\	-car-	8d\	-car-	8g\	-car-	8b\	-car-
.	5	.	16ff#\JJ	.	.	.	.	.	.	.	.
8A\	.	8cc#X\L	16ee\LL	4A\	-na-	4c#X\	-na-	4e\	-na-	8.a\L	-na-
.	.	.	16gg\	.	.	.	.	.	.	.	.
8AA/J	4	8cc#\J	16ff#\	.	.	.	.	.	.	.	.
.	3	.	16ee\JJ	.	.	.	.	.	.	16g\Jk	.
4D/	.	8dd\L	8dd\L	4D/	-(tur)	4d\	-(tur)	4d\	-tur	4f#/	-t(ur)
.	.	16b\L	16dd\L	.	.	.	.	.	.	.	.
.	.	16b\JJ	16dd\JJ	.	.	.	.	.	.	.	.
8r	.	8b\L	8dd\L	8r	.	8r	.	8r	.	8r	.
8GG/	.	8b\J	8dd\J	8G\	in	8G/	in	8d\	in	8b\	in
!	!	!	!	!	!	!LO:LB:g=original	!	!	!	!	!
=19	=19	=19	=19	=19	=19	=19	=19	=19	=19	=19	=19
8C/L	.	4cc\	4ee\	8c\	de-	8c\	de-	8e\	de-	8g\	de-
8C/	.	.	.	8c\	-c(em)	8G/	-c(em)	8e\	-cem	8a\	-c(em)
8C/	.	4r	4r	8c\	li-	8c\	li-	8e\	li-	8b\	li-
8BB/J	.	.	.	8B\	-ne-	8B\	-ne-	8e\	-ne-	8g\	-ne-
!	!	!LO:LB:g=original	!	!	!	!	!	!	!	!	!
4AA/	.	8cc\L	8ee\L	4A\	-is	4A/	-is	4e\	-is	4cc\	-is
.	.	16cc\L	16ee\L	.	.	.	.	.	.	.	.
.	.	16cc\JJ	16ee\JJ	.	.	.	.	.	.	.	.
8r	.	8cc\L	8ee\L	8r	.	8r	.	8r	.	8r	.
*	*	*	*	*	*	*	*	*	*ij	*	*
8AA/	.	8cc\J	8ee\J	8A\	in	8A\	in	8e\	in	8cc\	in
=20	=20	=20	=20	=20	=20	=20	=20	=20	=20	=20	=20
8D/L	.	4dd\	4ff#\	8d\	de-	8d\	de-	8f#\	de-	8a\	de-
8D/	.	.	.	8d\	-c(em)	8A/	-c(em)	8f#\	-cem	8b\	-cem
!	!	!	!	!LO:LB:g=original	!	!	!	!	!	!	!
8D/	.	4r	4r	8d\	li-	8d\	li-	8f#\	li-	8cc\	li-
8C/J	.	.	.	8c\	-ne-	8c\	-ne-	8f#\	-ne-	8a\	-ne-
4BB/	6	4r	4r	4B\	-is	4B\	-is	4g,\	-is	4dd\	-is
*	*	*	*	*	*	*	*	*	*Xij	*	*
8F#\L	6	8dd\L	8dd\L	8F#\	ver-	8d\	ver-	8a\	Ver-	8dd\	Ver-
8F#\J	.	8dd\J	8aa\J	8F#\	-b(um)	8d\	-b(um)	8a\	-b(um)	8dd\	-bum
!	!	!	!	!	!	!	!	!LO:LB:g=original	!	!	!
=21	=21	=21	=21	=21	=21	=21	=21	=21	=21	=21	=21
!LO:TX:a:t=P:problem=mixed beam	!	!	!	!	!	!	!	!	!	!	!
8G\L	.	16ee\LL	8bb\L	8G\	in-	8B\	in-	8g\	in-	(>16ee\LL	in-
.	.	16dd\	.	.	.	.	.	.	.	16dd\JJ)	.
8C/	6	16cc\	8gg\J	8C/	-car-	8c\	-car-	8g\	-car-	(>16cc\LL	-car-
.	5	16b\JJ	.	.	.	.	.	.	.	16b\JJ)	.
!	!	!	!	!	!	!	!	!	!	!LO:PB:g=original	!
8D/	.	4a/	4ff#\	4D/	-na-	4A/	-na-	4f#\	-na-	4a\	-na-
8DD/J	4	.	.	.	.	.	.	.	.	.	.
.	3	.	.	.	.	.	.	.	.	.	.
4GG/	.	8b/L	8gg\L	4GG/	-(tur)	4B\	-(tur)	4g\	-tur	4g\	-tur
.	.	16g/L	16b\L	.	.	.	.	.	.	.	.
.	.	16g/JJ	16b\JJ	.	.	.	.	.	.	.	.
4r	.	8g/L	8b\L	4r	.	4r	.	4r	.	4r	.
.	.	8b/J	8dd\J	.	.	.	.	.	.	.	.
!LO:LB:g=original	!	!	!	!	!	!	!	!	!	!	!
=22	=22	=22	=22	=22	=22	=22-	=22-	=22	=22	=22-	=22-
8c\L	.	4cc\	4ee\	0r	.	0r	.	0r	.	0r	.
16c\L	.	.	.	.	.	.	.	.	.	.	.
16c\JJ	.	.	.	.	.	.	.	.	.	.	.
8c\L	.	4r	4r	.	.	.	.	.	.	.	.
8B\J	.	.	.	.	.	.	.	.	.	.	.
4A\	.	8a/L	8cc\L	.	.	.	.	.	.	.	.
.	.	16f#/L	16a\L	.	.	.	.	.	.	.	.
.	.	16f#/JJ	16a\JJ	.	.	.	.	.	.	.	.
8r	.	8f#/L	8a\L	.	.	.	.	.	.	.	.
!LO:TX:a:t=P:problem=w źródle nuta 8A poprawiana przez skryptora	!	!	!	!	!	!	!	!	!	!	!
8A\	.	8a/J	8cc\J	.	.	.	.	.	.	.	.
!	!	!	!LO:LB:g=original	!	!	!	!	!	!	!	!
=23	=23	=23	=23	=23	=23	=23	=23	=23	=23	=23	=23
8B\L	.	4b/	4dd\	.	.	.	.	.	.	.	.
16B\L	.	.	.	.	.	.	.	.	.	.	.
16B\JJ	.	.	.	.	.	.	.	.	.	.	.
8B\L	.	4r	4r	.	.	.	.	.	.	.	.
8A\J	.	.	.	.	.	.	.	.	.	.	.
4G\	.	8g/L	8b/L	.	.	.	.	.	.	.	.
.	.	16d/L	16g/L	.	.	.	.	.	.	.	.
.	.	16d/JJ	16g/JJ	.	.	.	.	.	.	.	.
!	!	!LO:TX:a:t=P:problem=mixed beam	!	!	!	!	!	!	!	!	!
8r	.	8d/L	8b\L	.	.	.	.	.	.	.	.
8G\	.	8b\J	8dd\J	.	.	.	.	.	.	.	.
=24	=24	=24	=24	=24-	=24-	=24	=24	=24-	=24-	=24-	=24-
8C/L	.	16cc\LL	16ee\LL	8C/	in-	8c\	in-	8g\	in-	(>16ee\LL	in-
.	.	16b\	16dd\	.	.	.	.	.	.	16dd\JJ)	.
16BB/L	.	16a\	16cc\	(<16BB/LL	-car-	8c\	-car-	8g\	-car-	(>16cc\LL	-car-
16C/JJ	.	16g\JJ	16b\JJ	16C/JJ)	.	.	.	.	.	16b\JJ)	.
8D/L	.	8.f#/L	8.a/L	4D/	-na-	4d\	-na-	4f#\	-na-	4a\	-na-
8DD/J	.	.	.	.	.	.	.	.	.	.	.
.	.	16f#/Jk	16g/Jk	.	.	.	.	.	.	.	.
4GG/	.	4g/	4g/	4GG/	-(tur)	4B\	-tur	4g\	-tur	4g\	-t(ur)
4r	.	4r	4r	4r	.	4r	.	4r	.	4r	.
!	!	!LO:LB:g=original	!	!	!	!LO:LB:g=original	!	!	!	!	!
=||	=||	=||	=||	=	=	=||	=||	=||	=||	=||	=||
*M3/2	*	*M3/2	*M3/2	*M3/2	*	*M3/2	*	*M3/2	*	*M3/2	*
!	!	!	!	!LO:TX:a:Bi:t=Homo \nTC	!	!LO:TX:a:Bi:t=Homo \nTacet	!	!LO:TX:a:Bi:t=Homo Fac \nCanto	!	!	!
!LO:TX:b:Bi:t=Homo ut abinſens:dur=4wh:ext=s:problem=text with extention lines	!	!	!LO:TX:b:Bi:t=Homo	!	!	!	!	!	!	!	!
!LO:TX:a:Bi:t=ſolo	!	!	!LO:TX:a:Bi:t=adagio	!	!	!	!	!	!	!	!
!	!	!	!	!	!	!	!	!	!	!LO:N:vis=00	!
1E	.	2r	2r	1.ryy	.	1.ryy	.	1.ryy	.	00.r	.
!	!	!LO:TX:b:Bi:t=Homo	!	!	!	!	!	!	!	!	!
!	!	!LO:TX:a:Bi:t=ſolo	!	!	!	!	!	!	!	!	!
.	.	2b/	2b\	.	.	.	.	.	.	.	.
2D#X\	6	2b/	2b\	.	.	.	.	.	.	.	.
=25	=25	=25	=25	=25	=25	=25	=25	=25	=25	=25	=25
2E\	.	2g/	2g/	1.ryy	.	1.ryy	.	1.ryy	.	.	.
2G\	6	2e/	2e/	.	.	.	.	.	.	.	.
2A\	6	4ee\	4ee\	.	.	.	.	.	.	.	.
.	.	4ff#\	4ff#\	.	.	.	.	.	.	.	.
=26	=26	=26	=26	=26	=26	=26	=26	=26	=26	=26	=26
4B\	.	2dd#X\	2dd#X\	1.ryy	.	1.ryy	.	1.ryy	.	.	.
4c\	.	.	.	.	.	.	.	.	.	.	.
4B\	.	2b\	2b\	.	.	.	.	.	.	.	.
4A\	.	.	.	.	.	.	.	.	.	.	.
4G\	.	4ee\	4ee\	.	.	.	.	.	.	.	.
4F#\	.	4dd#\	4dd#\	.	.	.	.	.	.	.	.
!LO:LB:g=original	!	!	!	!	!	!	!	!	!	!	!
=27	=27	=27	=27	=27	=27	=27	=27	=27	=27	=27	=27
2E\	.	4cc\	4cc\	1.ryy	.	1.ryy	.	1.ryy	.	.	.
.	.	4b\	4b\	.	.	.	.	.	.	.	.
2A\	.	4a\	4a\	.	.	.	.	.	.	.	.
.	.	4g/	4g\	.	.	.	.	.	.	.	.
2B\	4	2f#/	2f#/	.	.	.	.	.	.	.	.
.	3	.	.	.	.	.	.	.	.	.	.
=28	=28	=28	=28	=28	=28	=28	=28	=28	=28	=28-	=28-
!	!	!	!	!	!	!	!	!	!	!LO:TX:a:Bi:t=ſ.	!
1E	.	2e/	2e/	1.ryy	.	1.ryy	.	1.ryy	.	2r	.
.	.	2r	2r	.	.	.	.	.	.	2b\	Ho-
2D#X\	6	2r	2r	.	.	.	.	.	.	2b\	-mo
=29	=29	=29	=29	=29	=29	=29	=29	=29	=29	=29	=29
*	*	*	*	*	*	*	*	*	*	*	*ij
!	!	!LO:N:vis=0	!LO:N:vis=0	!	!	!	!	!	!	!	!
2E\	.	0.r	0.r	1.ryy	.	1.ryy	.	1.ryy	.	2g/	Ho-
2G\	.	.	.	.	.	.	.	.	.	2e,/	-mo
*	*	*	*	*	*	*	*	*	*	*	*Xij
2A\	.	.	.	.	.	.	.	.	.	4ee\	ut
.	.	.	.	.	.	.	.	.	.	4ff#\	ab
=30	=30	=30	=30	=30	=30	=30	=30	=30	=30	=30	=30
4B\	.	.	.	1.ryy	.	1.ryy	.	1.ryy	.	4.dd#X\	in-
4c\	.	.	.	.	.	.	.	.	.	.	.
.	.	.	.	.	.	.	.	.	.	8cc\	-fe-
4B\	.	.	.	.	.	.	.	.	.	2b\	-ris
4A\	.	.	.	.	.	.	.	.	.	.	.
4G\	.	.	.	.	.	.	.	.	.	4ee\	ad
!	!	!	!	!	!	!	!	!	!	!LO:SIC:s=4ddn:v	!
4F#\	.	.	.	.	.	.	.	.	.	4dd-X\	ſu-
=31	=31	=31	=31	=31	=31	=31	=31	=31	=31	=31	=31
2E\	.	1.r	1.r	1.ryy	.	1.ryy	.	1.ryy	.	(>4cc\	-ma-
.	.	.	.	.	.	.	.	.	.	4b\)	.
2A\	.	.	.	.	.	.	.	.	.	(>4a\	-tol-
.	.	.	.	.	.	.	.	.	.	4g\)	.
*	*	*	*	*	*	*	*	*	*	*custos:f#	*
!	!	!	!	!	!	!	!	!	!	!LO:LB:g=original	!
2B\	.	.	.	.	.	.	.	.	.	2f#/	-la-
=32	=32	=32-	=32-	=32	=32	=32	=32	=32	=32	=32	=32
2E\	.	4b\	4b\	1.ryy	.	1.ryy	.	1.ryy	.	2e/	-tur
.	.	4cc\	4cc\	.	.	.	.	.	.	.	.
2r	.	4b\	4b\	.	.	.	.	.	.	2r	.
.	.	4a\	4a\	.	.	.	.	.	.	.	.
2r	.	4g/	4g/	.	.	.	.	.	.	2r	.
.	.	4f#/	4f#/	.	.	.	.	.	.	.	.
=33	=33	=33	=33	=33	=33	=33	=33	=33	=33	=33-	=33-
!	!	!	!	!	!	!	!	!	!	!LO:N:vis=00	!
4E\	.	2g/	2g/	1.ryy	.	1.ryy	.	1.ryy	.	00.r	.
4F#\	.	.	.	.	.	.	.	.	.	.	.
!	!	!LO:SIC:s=2e:v	!	!	!	!	!	!	!	!	!
4E\	.	2d/	2e/	.	.	.	.	.	.	.	.
4D\	.	.	.	.	.	.	.	.	.	.	.
4C/	.	2r	2r	.	.	.	.	.	.	.	.
4BB/	.	.	.	.	.	.	.	.	.	.	.
!	!	!	!LO:LB:g=original	!	!	!	!	!	!	!	!
=34	=34	=34	=34	=34	=34	=34	=34	=34	=34	=34	=34
2AA/	.	4ee\	4ee\	1.ryy	.	1.ryy	.	1.ryy	.	.	.
.	.	4ffn\	4ffn\	.	.	.	.	.	.	.	.
!	!	!LO:LB:g=original	!	!	!	!	!	!	!	!	!
2r	.	4ee\	4ee\	.	.	.	.	.	.	.	.
.	.	4dd\	4dd\	.	.	.	.	.	.	.	.
2r	.	4cc\	4cc\	.	.	.	.	.	.	.	.
.	.	4b\	4b\	.	.	.	.	.	.	.	.
=35	=35	=35	=35	=35	=35	=35	=35	=35	=35	=35	=35
4A\	.	2cc\	2cc\	1.ryy	.	1.ryy	.	1.ryy	.	.	.
4B\	.	.	.	.	.	.	.	.	.	.	.
4A\	.	2a/	2a/	.	.	.	.	.	.	.	.
4G\	.	.	.	.	.	.	.	.	.	.	.
4F#\	.	2r	2r	.	.	.	.	.	.	.	.
4E\	.	.	.	.	.	.	.	.	.	.	.
!LO:PB:g=original	!	!	!	!	!	!	!	!	!	!	!
=36	=36	=36	=36	=36	=36	=36	=36	=36	=36	=36	=36
2D\	6	4dd\	4dd\	1.ryy	.	1.ryy	.	1.ryy	.	.	.
.	.	4ee\	4ee\	.	.	.	.	.	.	.	.
2r	.	4dd\	4dd\	.	.	.	.	.	.	.	.
.	.	4cc\	4cc\	.	.	.	.	.	.	.	.
2r	.	4b\	4b\	.	.	.	.	.	.	.	.
.	.	4a/	4a\	.	.	.	.	.	.	.	.
=37	=37	=37	=37	=37	=37	=37	=37	=37	=37	=37	=37
!	!	!	!	!	!	!	!	!	!	!LO:N:vis=0	!
4G\	.	2b\	2b\	1.ryy	.	1.ryy	.	1.ryy	.	0.r	.
4A\	.	.	.	.	.	.	.	.	.	.	.
4G\	.	2g/	2g/	.	.	.	.	.	.	.	.
4F#\	.	.	.	.	.	.	.	.	.	.	.
4E\	.	2b\	2b\	.	.	.	.	.	.	.	.
4D#X\	6	.	.	.	.	.	.	.	.	.	.
=38	=38	=38	=38	=38	=38	=38	=38	=38	=38	=38	=38
2E\	.	4cc\	4cc\	1.ryy	.	1.ryy	.	1.ryy	.	.	.
.	.	4b\	4b\	.	.	.	.	.	.	.	.
2A\	6	4a\	4a\	.	.	.	.	.	.	.	.
.	5	4g\	4g\	.	.	.	.	.	.	.	.
2B\	4	2f#/	2f#/	.	.	.	.	.	.	.	.
.	3	.	.	.	.	.	.	.	.	.	.
=39	=39	=39	=39	=39	=39	=39	=39	=39	=39	=39-	=39-
1E	.	2g/	2e/	1.ryy	.	1.ryy	.	1.ryy	.	2r	.
.	.	2r	2r	.	.	.	.	.	.	2b\	ho-
2D#X\	6	2r	2r	.	.	.	.	.	.	2b\	-mo
=40	=40	=40	=40-	=40	=40	=40	=40	=40	=40	=40	=40
*	*	*	*	*	*	*	*	*	*	*	*ij
!	!	!LO:N:vis=00	!LO:N:vis=00	!	!	!	!	!	!	!	!
2E\	.	00.r	00.r	1.ryy	.	1.ryy	.	1.ryy	.	2g/	ho-
2G\	.	.	.	.	.	.	.	.	.	2e/	-mo
*	*	*	*	*	*	*	*	*	*	*	*Xij
2A\	.	.	.	.	.	.	.	.	.	4ee\	ut
.	.	.	.	.	.	.	.	.	.	4ff#\	ab
=41	=41	=41	=41	=41	=41	=41	=41	=41	=41	=41	=41
4B\	.	.	.	1.ryy	.	1.ryy	.	1.ryy	.	4.dd#X\	in-
4c\	.	.	.	.	.	.	.	.	.	.	.
!	!	!	!	!	!	!	!	!	!	!LO:SIC:s=8ccn:v	!
.	.	.	.	.	.	.	.	.	.	8cc#X\	-fe-
4B\	.	.	.	.	.	.	.	.	.	2b\	-ris
4A\	.	.	.	.	.	.	.	.	.	.	.
4G\	.	.	.	.	.	.	.	.	.	4ee\	ad
!	!	!	!	!	!	!	!	!	!	!LO:SIC:s=4ddn:v	!
4F#\	.	.	.	.	.	.	.	.	.	4dd#\	ſu-
=42	=42	=42	=42	=42	=42	=42	=42	=42	=42	=42	=42
2E\	.	.	.	1.ryy	.	1.ryy	.	1.ryy	.	(>4cc\	-ma-
.	.	.	.	.	.	.	.	.	.	4b\)	.
2A\	6	.	.	.	.	.	.	.	.	(>4a\	-tol-
.	5	.	.	.	.	.	.	.	.	4g\)	.
2B\	4	.	.	.	.	.	.	.	.	2f#/	-la-
.	3	.	.	.	.	.	.	.	.	.	.
=43	=43	=43	=43	=43	=43	=43	=43	=43	=43	=43	=43
1E	.	.	.	1.ryy	.	1.ryy	.	1.ryy	.	2e/	-tur
.	.	.	.	.	.	.	.	.	.	2r	.
2D#X\	6	.	.	.	.	.	.	.	.	2b\	tol-
!	!	!	!	!	!	!	!	!	!	!LO:LB:g=original	!
=44	=44	=44	=44	=44	=44	=44	=44	=44	=44	=44	=44
!	!	!LO:N:vis=00	!LO:N:vis=00	!	!	!	!	!	!	!	!
2E\	.	00.r	00.r	1.ryy	.	1.ryy	.	1.ryy	.	4g/	-la-
.	.	.	.	.	.	.	.	.	.	4f#/	.
2r	.	.	.	.	.	.	.	.	.	4e/	.
.	.	.	.	.	.	.	.	.	.	4f#/	.
2r	.	.	.	.	.	.	.	.	.	4g/	.
.	.	.	.	.	.	.	.	.	.	4e/	.
!LO:LB:g=original	!	!	!	!	!	!	!	!	!	!	!
=45	=45	=45	=45	=45	=45	=45	=45	=45	=45	=45	=45
2BB/	.	.	.	1.ryy	.	1.ryy	.	1.ryy	.	2f#/	.
2C#X/	6	.	.	.	.	.	.	.	.	2f#/	-tur
2D#X/	6	.	.	.	.	.	.	.	.	2b\	tol-
=46	=46	=46	=46	=46	=46	=46	=46	=46	=46	=46	=46
2E\	.	.	.	1.ryy	.	1.ryy	.	1.ryy	.	4g/	-la-
.	.	.	.	.	.	.	.	.	.	4f#/	.
2r	.	.	.	.	.	.	.	.	.	4e/	.
.	.	.	.	.	.	.	.	.	.	4f#/	.
2r	.	.	.	.	.	.	.	.	.	4g/	.
.	.	.	.	.	.	.	.	.	.	4e/	.
=47	=47	=47	=47	=47	=47	=47	=47	=47	=47	=47	=47
1BB	.	.	.	1.ryy	.	1.ryy	.	1.ryy	.	2f#/	.
.	.	.	.	.	.	.	.	.	.	2f#/	-tur
2F#\	6	.	.	.	.	.	.	.	.	2dd\	tol-
=48	=48	=48	=48	=48	=48	=48	=48	=48	=48	=48	=48
!	!	!LO:N:vis=00	!LO:N:vis=00	!	!	!	!	!	!	!	!
2G\	.	00.r	00.r	1.ryy	.	1.ryy	.	1.ryy	.	4b\	-la-
.	.	.	.	.	.	.	.	.	.	4a\	.
2r	.	.	.	.	.	.	.	.	.	4g\	.
.	.	.	.	.	.	.	.	.	.	4a\	.
2r	.	.	.	.	.	.	.	.	.	4b\	.
.	.	.	.	.	.	.	.	.	.	4g\	.
=49	=49	=49	=49	=49	=49	=49	=49	=49	=49	=49	=49
2D\	.	.	.	1.ryy	.	1.ryy	.	1.ryy	.	2a\	.
2E\	.	.	.	.	.	.	.	.	.	2a\	-tur
2F#\	.	.	.	.	.	.	.	.	.	2dd\	tol-
!	!	!	!	!	!	!	!	!	!	!LO:LB:g=original	!
=50	=50	=50	=50	=50	=50	=50	=50	=50	=50	=50	=50
2G\	6	.	.	1.ryy	.	1.ryy	.	1.ryy	.	4ee\	-la-
.	.	.	.	.	.	.	.	.	.	4b\	.
!	!	!	!	!	!	!	!	!	!	!LO:TX:a:B:t=t	!
2C/	6	.	.	.	.	.	.	.	.	1a	.
.	5	.	.	.	.	.	.	.	.	.	.
2D/	4	.	.	.	.	.	.	.	.	.	.
.	3	.	.	.	.	.	.	.	.	.	.
=51	=51	=51	=51	=51	=51	=51	=51	=51	=51	=51	=51
2GG/	.	.	.	1.ryy	.	1.ryy	.	1.ryy	.	2g\	-tur
2E\	5	.	.	.	.	.	.	.	.	2b\	im-
2E\	6	.	.	.	.	.	.	.	.	2cc\	-men-
=52	=52	=52	=52	=52	=52	=52	=52	=52	=52	=52	=52
!	!	!LO:N:vis=00	!LO:N:vis=00	!	!	!	!	!	!	!	!
1BB	7	00.r	00.r	1.ryy	.	1.ryy	.	1.ryy	.	1a	-(sus)
2BB/	6	.	.	.	.	.	.	.	.	2b\	ab
=53	=53	=53	=53	=53	=53	=53	=53	=53	=53	=53	=53
1.E	.	.	.	1.ryy	.	1.ryy	.	1.ryy	.	2.g/	An-
.	.	.	.	.	.	.	.	.	.	4f#/	-ge-
.	.	.	.	.	.	.	.	.	.	2e/	-lis
=54	=54	=54	=54	=54	=54	=54	=54	=54	=54	=54	=54
1C#X	.	.	.	1.ryy	.	1.ryy	.	1.ryy	.	2.ee\	pau-
.	.	.	.	.	.	.	.	.	.	4dd\	-lo
2F#\	5	.	.	.	.	.	.	.	.	2cc#X\	mi-
=55	=55	=55	=55	=55	=55	=55	=55	=55	=55	=55	=55
4G\	.	.	.	1.ryy	.	1.ryy	.	1.ryy	.	2dd\	-no-
4E\	.	.	.	.	.	.	.	.	.	.	.
2F#\	.	.	.	.	.	.	.	.	.	1cc#X	-ra-
2FF#/	x 4	.	.	.	.	.	.	.	.	.	.
.	# 3	.	.	.	.	.	.	.	.	.	.
!LO:LB:g=original	!	!	!	!	!	!	!	!	!	!	!
=56	=56	=56	=56	=56	=56	=56	=56	=56	=56	=56	=56
!	!	!LO:N:vis=0	!LO:N:vis=0	!	!	!	!	!	!	!	!
2BB/	.	0.r	0.r	1.ryy	.	1.ryy	.	1.ryy	.	1.b	-tur
2C#X/	6	.	.	.	.	.	.	.	.	.	.
2D#X/	6	.	.	.	.	.	.	.	.	.	.
=57	=57	=57	=57	=57	=57	=57	=57	=57	=57	=57	=57
2E\	.	.	.	1.ryy	.	1.ryy	.	1.ryy	.	2.b\	pau-
2r	.	.	.	.	.	.	.	.	.	.	.
.	.	.	.	.	.	.	.	.	.	4a\	-lo
2r	.	.	.	.	.	.	.	.	.	2g\	mi-
=58	=58	=58	=58	=58	=58	=58	=58	=58	=58	=58	=58
2A\	6	1.r	1.r	1.ryy	.	1.ryy	.	1.ryy	.	(>4a\	-no-
.	5	.	.	.	.	.	.	.	.	4g\)	.
*	*	*	*	*	*	*	*	*	*	*custos:f#	*
!	!	!	!	!	!	!	!	!	!	!LO:LB:g=original	!
2B\	4	.	.	.	.	.	.	.	.	1f#	-ra-
.	3	.	.	.	.	.	.	.	.	.	.
2BB/	.	.	.	.	.	.	.	.	.	.	.
=59	=59	=59-	=59-	=59	=59	=59	=59	=59	=59	=59	=59
2E\	.	4b\	4b\	1.ryy	.	1.ryy	.	1.ryy	.	2e/	-tur
.	.	4cc\	4cc\	.	.	.	.	.	.	.	.
2r	.	4b\	4b\	.	.	.	.	.	.	2r	.
.	.	4a\	4a\	.	.	.	.	.	.	.	.
2r	.	4g/	4g\	.	.	.	.	.	.	2r	.
.	.	4f#/	4f#/	.	.	.	.	.	.	.	.
=60	=60	=60	=60	=60	=60	=60	=60	=60	=60	=60-	=60-
!	!	!	!	!	!	!	!	!	!	!LO:N:vis=00	!
4E\	.	2g/	2g/	1.ryy	.	1.ryy	.	1.ryy	.	00.r	.
4F#\	.	.	.	.	.	.	.	.	.	.	.
4E\	.	2e/	2e/	.	.	.	.	.	.	.	.
4D\	.	.	.	.	.	.	.	.	.	.	.
4C/	.	2r	2r	.	.	.	.	.	.	.	.
4BB/	.	.	.	.	.	.	.	.	.	.	.
!	!	!LO:LB:g=original	!	!	!	!	!	!	!	!	!
=61	=61	=61	=61	=61	=61	=61	=61	=61	=61	=61	=61
2AA/	.	4ee\	4ee\	1.ryy	.	1.ryy	.	1.ryy	.	.	.
.	.	4ffn\	4ffn\	.	.	.	.	.	.	.	.
2r	.	4ee\	4ee\	.	.	.	.	.	.	.	.
.	.	4dd\	4dd\	.	.	.	.	.	.	.	.
2r	.	4cc\	4cc\	.	.	.	.	.	.	.	.
.	.	4b\	4b\	.	.	.	.	.	.	.	.
!	!	!	!LO:LB:g=original	!	!	!	!	!	!	!	!
=62	=62	=62	=62	=62	=62	=62	=62	=62	=62	=62	=62
!	!	!LO:TX:a:t=P:problem=w źródle niejasny zapis nuty 2cc	!	!	!	!	!	!	!	!	!
4A\	.	2cc\	2cc\	1.ryy	.	1.ryy	.	1.ryy	.	.	.
4B\	.	.	.	.	.	.	.	.	.	.	.
4A\	.	2a/	2a/	.	.	.	.	.	.	.	.
4G\	.	.	.	.	.	.	.	.	.	.	.
4F#\	.	2r	2r	.	.	.	.	.	.	.	.
4E\	.	.	.	.	.	.	.	.	.	.	.
=63	=63	=63	=63	=63	=63	=63	=63	=63	=63	=63	=63
2D\	6	4dd\	4dd\	1.ryy	.	1.ryy	.	1.ryy	.	.	.
.	.	4ee\	4ee\	.	.	.	.	.	.	.	.
2r	.	4dd\	4dd\	.	.	.	.	.	.	.	.
.	.	4cc\	4cc\	.	.	.	.	.	.	.	.
2r	.	4b\	4b\	.	.	.	.	.	.	.	.
.	.	4a\	4a\	.	.	.	.	.	.	.	.
=64	=64	=64	=64	=64	=64	=64	=64	=64	=64	=64	=64
!	!	!	!	!	!	!	!	!	!	!LO:N:vis=0	!
4G\	.	2b\	2b\	1.ryy	.	1.ryy	.	1.ryy	.	0.r	.
4A\	.	.	.	.	.	.	.	.	.	.	.
4G\	.	2g/	2g/	.	.	.	.	.	.	.	.
4F#\	.	.	.	.	.	.	.	.	.	.	.
4E\	.	2b\	2b\	.	.	.	.	.	.	.	.
4D#X\	6	.	.	.	.	.	.	.	.	.	.
!LO:LB:g=original	!	!	!	!	!	!	!	!	!	!	!
=65	=65	=65	=65	=65	=65	=65	=65	=65	=65	=65	=65
2E\	.	4cc\	4cc\	1.ryy	.	1.ryy	.	1.ryy	.	.	.
.	.	4b\	4b\	.	.	.	.	.	.	.	.
2A\	6	4a\	4a\	.	.	.	.	.	.	.	.
.	5	4g\	4g\	.	.	.	.	.	.	.	.
2B\	4	2f#/	2f#/	.	.	.	.	.	.	.	.
.	3	.	.	.	.	.	.	.	.	.	.
=66	=66	=66	=66	=66	=66	=66	=66	=66	=66	=66	=66
1.E	.	1.e/	2e/	1.ryy	.	1.ryy	.	1.ryy	.	1.r	.
.	.	.	2r	.	.	.	.	.	.	.	.
.	.	.	2r	.	.	.	.	.	.	.	.
!	!	!LO:TX:a:t=P:problem=w źródle ozdobna kreska końcowa &colon;||&colon;	!	!	!	!	!	!	!	!	!
=67||	=67||	=67||	=67||	=67||	=67||	=67||	=67||	=67||	=67||	=67||	=67||
*M4/4	*	*M2/2	*M4/4	*M2/2	*	*M4/4	*	*M4/4	*	*M4/4	*
*met(c)	*	*met(c|)	*met(c)	*met(c|)	*	*met(c)	*	*met(c)	*	*met(c)	*
!	!	!LO:TX:a:t=P:problem=w źródle metrum alla breve	!	!LO:TX:a:t=P:problem=w źródle metrum alla breve	!	!	!	!	!	!	!
!	!	!	!	!	!	!LO:TX:a:Bi:t=Solis huj(us) \nTacet	!	!LO:TX:a:Bi:t=Solis huius rad(ij)s \nBaſso Tac	!	!LO:TX:a:Bi:t=Solis hujus \nTC.	!
!LO:TX:a:Bi:t=ſolo	!	!LO:TX:a:Bi:t=ſolo	!	!	!	!	!	!	!	!	!
!	!	!LO:TX:b:Bi:t=ſolis hujus radijs:dur=1wh:ext=s:problem=text with extention lines	!	!	!	!	!	!	!	!	!
4GG/	.	1r	1r	(>16G\LL	ſo-	1ryy	.	1ryy	.	1ryy	.
.	.	.	.	16A\JJ)	.	.	.	.	.	.	.
.	.	.	.	(>16B\LL	-lis	.	.	.	.	.	.
.	.	.	.	16G\JJ)	.	.	.	.	.	.	.
8r	.	.	.	8A\	hu-	.	.	.	.	.	.
8F#\	6	.	.	8d\	-jus	.	.	.	.	.	.
4G\	.	.	.	8.B\	ra-	.	.	.	.	.	.
.	.	.	.	16A\	-di-	.	.	.	.	.	.
8r	.	.	.	8G\	-js	.	.	.	.	.	.
8F#\	6	.	.	8D\	ma-	.	.	.	.	.	.
!	!	!	!	!LO:LB:g=original	!	!	!	!	!	!	!
=68	=68	=68-	=68-	=68	=68	=68	=68	=68	=68	=68	=68
!LO:TX:a:t=P:problem=mixed beam	!	!	!	!	!	!	!	!	!	!	!
8G\L	.	2r	2r	8G\	-ria	1ryy	.	1ryy	.	1ryy	.
8C\	6	.	.	16A\	co-	.	.	.	.	.	.
.	5	.	.	16B\	.	.	.	.	.	.	.
8D\	.	.	.	4F#\	-ru-	.	.	.	.	.	.
8DD/J	4	.	.	.	.	.	.	.	.	.	.
.	3	.	.	.	.	.	.	.	.	.	.
!	!	!	!LO:TX:a:Bi:t=ſolo	!	!	!	!	!	!	!	!
4GG/	.	4g/	8r	4G\	-scat	.	.	.	.	.	.
.	.	.	16b\LL	.	.	.	.	.	.	.	.
.	.	.	16cc\JJ	.	.	.	.	.	.	.	.
!	!	!	!LO:TX:b:Bi:t=ſolis	!	!	!	!	!	!	!	!
8r	.	8r	8dd\L	4r	.	.	.	.	.	.	.
8G\	.	8b\	8gg\J	.	.	.	.	.	.	.	.
=69	=69	=69	=69	=69	=69	=69	=69	=69	=69	=69	=69
4D/	.	4a/	8ff#\L	1r	.	1ryy	.	1ryy	.	1ryy	.
.	.	.	8dd\	.	.	.	.	.	.	.	.
8r	.	8r	8cc\	.	.	.	.	.	.	.	.
8Cn/	.	8cc\	8ee\J	.	.	.	.	.	.	.	.
8AA/L	.	8a/L	16cc\LL	.	.	.	.	.	.	.	.
.	.	.	16dd\	.	.	.	.	.	.	.	.
16BB/L	.	8b/J	16cc\	.	.	.	.	.	.	.	.
16C/JJ	.	.	16b\JJ	.	.	.	.	.	.	.	.
!	!	!LO:LB:g=original	!	!	!	!	!	!	!	!	!
8D/L	.	4f#/	8.a/L	.	.	.	.	.	.	.	.
8DD/J	4	.	.	.	.	.	.	.	.	.	.
.	3	.	16g/Jk	.	.	.	.	.	.	.	.
=70	=70	=70	=70	=70-	=70-	=70	=70	=70	=70	=70	=70
4GG/	.	4g/	4g/	(>16G\LL	ſo-	1ryy	.	1ryy	.	1ryy	.
.	.	.	.	16A\JJ)	.	.	.	.	.	.	.
.	.	.	.	(>16B\LL	-lis	.	.	.	.	.	.
.	.	.	.	16G\JJ)	.	.	.	.	.	.	.
8r	.	4r	4r	8A\	hu-	.	.	.	.	.	.
8F#\	6	.	.	8d\	-jus	.	.	.	.	.	.
4G\	.	2r	2r	8.B\	ra-	.	.	.	.	.	.
.	.	.	.	16A\	-di-	.	.	.	.	.	.
8r	.	.	.	8G\	-js	.	.	.	.	.	.
8F#\	6	.	.	8D\	ma-	.	.	.	.	.	.
!LO:LB:g=original	!	!	!	!	!	!	!	!	!	!	!
=71	=71	=71	=71	=71	=71	=71	=71	=71	=71	=71	=71
!LO:TX:a:t=P:problem=mixed beam	!	!	!	!	!	!	!	!	!	!	!
8G\L	.	2r	2r	8G\	-ria	1ryy	.	1ryy	.	1ryy	.
8C\	6	.	.	16A\	co-	.	.	.	.	.	.
.	5	.	.	16B\	.	.	.	.	.	.	.
8D\	.	.	.	4F#\	-ru-	.	.	.	.	.	.
8DD/J	4	.	.	.	.	.	.	.	.	.	.
.	3	.	.	.	.	.	.	.	.	.	.
4GG/	.	4b/	8r	4G\	-scat	.	.	.	.	.	.
.	.	.	8dd\	.	.	.	.	.	.	.	.
!	!	!	!LO:LB:g=original	!	!	!	!	!	!	!	!
8r	.	8r	16ee\LL	4r	.	.	.	.	.	.	.
.	.	.	16gg\	.	.	.	.	.	.	.	.
8D\	.	8a/	16ff#\	.	.	.	.	.	.	.	.
.	.	.	16aa\JJ	.	.	.	.	.	.	.	.
=72	=72	=72	=72	=72	=72	=72	=72	=72	=72	=72	=72
!	!	!	!LO:TX:a:t=P:problem=mixed beam	!	!	!	!	!	!	!	!
4GG/	.	4b/	8gg\L	4r	.	1ryy	.	1ryy	.	1ryy	.
.	.	.	8g/J	.	.	.	.	.	.	.	.
8D\L	.	4r	4r	8A\	et	.	.	.	.	.	.
8F#\J	.	.	.	8A\	con-	.	.	.	.	.	.
4G\	.	2r	2r	16B\LL	-sur-	.	.	.	.	.	.
.	.	.	.	16A\	.	.	.	.	.	.	.
.	.	.	.	16G\	.	.	.	.	.	.	.
.	.	.	.	16A\JJ	.	.	.	.	.	.	.
8r	.	.	.	8B\	-gens	.	.	.	.	.	.
8C/	.	.	.	16A\	.	.	.	.	.	.	.
!	!	!	!	!LO:LB:g=original	!	!	!	!	!	!	!
.	.	.	.	16G\	au-	.	.	.	.	.	.
=73	=73	=73	=73	=73	=73	=73	=73	=73	=73	=73	=73
4D\	.	4r	4r	8A\	-ro-	1ryy	.	1ryy	.	1ryy	.
.	.	.	.	8D\	-ra	.	.	.	.	.	.
8D\L	.	8ff#\L	8aa\L	4r	.	.	.	.	.	.	.
8F#\J	.	8dd\J	8aa\J	.	.	.	.	.	.	.	.
4G\	.	8gg\L	16bb\LL	2r	.	.	.	.	.	.	.
.	.	.	16aa\	.	.	.	.	.	.	.	.
.	.	8dd\J	16gg\	.	.	.	.	.	.	.	.
.	.	.	16aa\JJ	.	.	.	.	.	.	.	.
8r	.	8gg\L	8bb\L	.	.	.	.	.	.	.	.
8C/	.	16ff#\L	16aa\L	.	.	.	.	.	.	.	.
.	.	16ee\JJ	16gg\JJ	.	.	.	.	.	.	.	.
=74	=74	=74	=74	=74	=74	=74	=74	=74	=74	=74	=74
4D\	.	8ff#\L	8aa\L	4r	.	1ryy	.	1ryy	.	1ryy	.
.	.	8dd\J	8dd\J	.	.	.	.	.	.	.	.
8D\L	.	4r	4r	8A\	et	.	.	.	.	.	.
8F#\J	.	.	.	8A\	con-	.	.	.	.	.	.
4G\	.	2r	2r	16B\LL	-sur-	.	.	.	.	.	.
.	.	.	.	16A\	.	.	.	.	.	.	.
.	.	.	.	16G\	.	.	.	.	.	.	.
.	.	.	.	16A\JJ	.	.	.	.	.	.	.
8r	.	.	.	8B\	.	.	.	.	.	.	.
8C/	.	.	.	16A\	-gens	.	.	.	.	.	.
.	.	.	.	16G\	au-	.	.	.	.	.	.
=75	=75	=75	=75	=75	=75	=75	=75	=75	=75	=75	=75
4D/	.	0r	0r	8A\	-ro-	1ryy	.	1ryy	.	1ryy	.
.	.	.	.	8D\	-ra	.	.	.	.	.	.
8r	.	.	.	8D\	in	.	.	.	.	.	.
8BB/	6	.	.	8G\	cons-	.	.	.	.	.	.
4C/	6	.	.	16E\LL	-pe-	.	.	.	.	.	.
.	.	.	.	16D\	.	.	.	.	.	.	.
.	.	.	.	16E\	.	.	.	.	.	.	.
.	.	.	.	16F#\JJ	.	.	.	.	.	.	.
8r	.	.	.	8E\L	.	.	.	.	.	.	.
8C/	6	.	.	8A\J	.	.	.	.	.	.	.
=76	=76	=76	=76	=76	=76	=76	=76	=76	=76	=76	=76
4D\	6	.	.	16F#\LL	.	1ryy	.	1ryy	.	1ryy	.
.	.	.	.	16E\	.	.	.	.	.	.	.
.	.	.	.	16F#\	.	.	.	.	.	.	.
.	.	.	.	16G\JJ	.	.	.	.	.	.	.
8r	.	.	.	8F#\L	.	.	.	.	.	.	.
8D\	6	.	.	8B\J	.	.	.	.	.	.	.
!LO:LB:g=original	!	!	!	!	!	!	!	!	!	!	!
4E\	6	.	.	16G\LL	.	.	.	.	.	.	.
.	.	.	.	16F#\	.	.	.	.	.	.	.
.	.	.	.	16G\	.	.	.	.	.	.	.
.	.	.	.	16A\JJ	.	.	.	.	.	.	.
8r	.	.	.	8G\L	.	.	.	.	.	.	.
8E\	6	.	.	8c\J	.	.	.	.	.	.	.
=77	=77	=77	=77	=77	=77	=77	=77	=77	=77	=77	=77
4F#\	6	1r	1r	16A\LL	.	1ryy	.	1ryy	.	1ryy	.
.	.	.	.	16G\	.	.	.	.	.	.	.
.	.	.	.	16A\	.	.	.	.	.	.	.
.	.	.	.	16B\JJ	.	.	.	.	.	.	.
8r	.	.	.	8A\L	.	.	.	.	.	.	.
8F#\	6	.	.	8d\J	.	.	.	.	.	.	.
!	!	!	!	!LO:LB:g=original	!	!	!	!	!	!	!
!LO:TX:a:t=P:problem=mixed beam	!	!	!	!	!	!	!	!	!	!	!
8G\L	.	.	.	8B\	.	.	.	.	.	.	.
8C\	6	.	.	8c\	-ctu	.	.	.	.	.	.
.	5	.	.	.	.	.	.	.	.	.	.
8D\	.	.	.	4A\	mi-	.	.	.	.	.	.
8DD/J	4	.	.	.	.	.	.	.	.	.	.
.	3	.	.	.	.	.	.	.	.	.	.
=78	=78	=78-	=78-	=78	=78	=78	=78	=78	=78	=78	=78
4GG/	.	4b/	8r	4G\	-cat	1ryy	.	1ryy	.	1ryy	.
.	.	.	8dd\	.	.	.	.	.	.	.	.
8r	.	8r	16ee\LL	4r	.	.	.	.	.	.	.
.	.	.	16gg\	.	.	.	.	.	.	.	.
8D\	4	8a/	16ff#\	.	.	.	.	.	.	.	.
.	3	.	16aa\JJ	.	.	.	.	.	.	.	.
!	!	!	!LO:TX:a:t=P:problem=mixed beam	!	!	!	!	!	!	!	!
8r	.	4b/	8gg\L	4r	.	.	.	.	.	.	.
8GG/	.	.	8g/J	.	.	.	.	.	.	.	.
8r	.	4r	4r	8D\	in	.	.	.	.	.	.
8BB/	6	.	.	8G\	cons-	.	.	.	.	.	.
=79	=79	=79	=79	=79	=79	=79	=79	=79	=79	=79	=79
4C/	6	0r	0r	16E\LL	-pe-	1ryy	.	1ryy	.	1ryy	.
.	.	.	.	16D\	.	.	.	.	.	.	.
.	.	.	.	16E\	.	.	.	.	.	.	.
.	.	.	.	16A\JJ	.	.	.	.	.	.	.
8r	.	.	.	8E\L	.	.	.	.	.	.	.
8C/	6	.	.	8A\J	.	.	.	.	.	.	.
4D\	6	.	.	16F#\LL	.	.	.	.	.	.	.
.	.	.	.	16E\	.	.	.	.	.	.	.
.	.	.	.	16F#\	.	.	.	.	.	.	.
.	.	.	.	16G\JJ	.	.	.	.	.	.	.
8r	.	.	.	8F#\L	.	.	.	.	.	.	.
8D\	6	.	.	8B\J	.	.	.	.	.	.	.
=80	=80	=80	=80	=80	=80	=80	=80	=80	=80	=80	=80
4E\	6	.	.	16G\LL	.	1ryy	.	1ryy	.	1ryy	.
.	.	.	.	16F#\	.	.	.	.	.	.	.
.	.	.	.	16G\	.	.	.	.	.	.	.
.	.	.	.	16A\JJ	.	.	.	.	.	.	.
8r	.	.	.	8G\L	.	.	.	.	.	.	.
8E\	6	.	.	8c\J	.	.	.	.	.	.	.
4F#\	6	.	.	16A\LL	.	.	.	.	.	.	.
.	.	.	.	16G\	.	.	.	.	.	.	.
.	.	.	.	16A\	.	.	.	.	.	.	.
.	.	.	.	16B\JJ	.	.	.	.	.	.	.
8r	.	.	.	8A\L	.	.	.	.	.	.	.
8F#\	6	.	.	8d\J	.	.	.	.	.	.	.
=81	=81	=81-	=81-	=81	=81	=81	=81	=81	=81	=81	=81
8G\L	.	8b\L	8gg\L	8B\	.	1ryy	.	1ryy	.	1ryy	.
8C\J	.	8cc\J	8gg\J	8c\	-ctu	.	.	.	.	.	.
4D\	.	4a/	4ff#\	4A\	mi-	.	.	.	.	.	.
2GG/	.	4b/	4gg\	4G\	-cat	.	.	.	.	.	.
.	.	4r	4r	4r	.	.	.	.	.	.	.
!	!	!LO:TX:a:t=P:problem=w źródle ozdobna kreska końcowa &colon;||&colon;	!	!	!	!	!	!LO:TX:a:t=P:problem=w źródle pod koniec Tac brakuje kreski taktowej	!	!	!
!LO:LB:g=original	!	!	!	!	!	!	!	!LO:PB:g=original	!	!	!
=82||	=82||	=82||	=82||	=82	=82	=82||	=82||	=82	=82	=82||	=82||
*M4/4	*	*M2/2	*M4/4	*M2/2	*	*M4/4	*	*M2/2	*	*M4/4	*
*met(c)	*	*met(c|)	*met(c)	*met(c|)	*	*met(c)	*	*met(c|)	*	*met(c)	*
!	!	!LO:TX:a:t=P:problem=w źródle metrum alla breve	!	!LO:TX:a:t=P:problem=w źródle metrum alla breve	!	!	!	!LO:TX:a:t=P:problem=w źródle metrum alla breve	!	!	!
!LO:TX:a:Bi:t=ſolo Adagio:rj	!	!	!	!	!	!	!	!	!	!	!
!	!	!	!	!	!	!	!	!LO:TX:b:Bi:t=canto	!	!	!
1E	.	00r	00r	00r	.	00r	.	00r	.	8b\	Li-
.	.	.	.	.	.	.	.	.	.	16b\	-li-
.	.	.	.	.	.	.	.	.	.	16b\	-um
.	.	.	.	.	.	.	.	.	.	8g\	in-
.	.	.	.	.	.	.	.	.	.	8b\	-ter
.	.	.	.	.	.	.	.	.	.	8e/	ſpi-
.	.	.	.	.	.	.	.	.	.	8e/	-nas
.	.	.	.	.	.	.	.	.	.	4r	.
=83	=83	=83	=83	=83	=83	=83	=83	=83	=83	=83	=83
1AA	.	.	.	.	.	.	.	.	.	8ee\	li-
.	.	.	.	.	.	.	.	.	.	16ee\	-li-
.	.	.	.	.	.	.	.	.	.	16ee\	-um
!	!	!	!	!	!	!	!	!	!	!LO:LB:g=original	!
.	.	.	.	.	.	.	.	.	.	8cc\	in-
.	.	.	.	.	.	.	.	.	.	8ee\	-ter
.	.	.	.	.	.	.	.	.	.	8a\	ſpi-
.	.	.	.	.	.	.	.	.	.	8a\	-nas
.	.	.	.	.	.	.	.	.	.	4r	.
=84	=84	=84	=84	=84	=84	=84	=84	=84	=84	=84	=84
2F#\	.	.	.	.	.	.	.	.	.	4r	.
.	.	.	.	.	.	.	.	.	.	8dd\	qua
.	.	.	.	.	.	.	.	.	.	8cc\	ser-
!LO:TX:a:t=P:problem=mixed beam	!	!	!	!	!	!	!	!	!	!	!
8G\L	.	.	.	.	.	.	.	.	.	8b\	-pen-
8C/J	.	.	.	.	.	.	.	.	.	8cc\	-tis
4D\	.	.	.	.	.	.	.	.	.	4a\	te-
=85	=85	=85	=85	=85	=85	=85	=85	=85	=85	=85	=85
4GG/	.	.	.	.	.	.	.	.	.	4g/	-rat
4D#X\	.	.	.	.	.	.	.	.	.	8b\	qua
.	.	.	.	.	.	.	.	.	.	8a\	ser-
!LO:TX:a:t=P:problem=mixed beam	!	!	!	!	!	!	!	!	!	!	!
8E\L	.	.	.	.	.	.	.	.	.	8g\	-pen-
8A\	.	.	.	.	.	.	.	.	.	8a\	-tis
8B\	.	.	.	.	.	.	.	.	.	4f#/	te-
8BB/J	.	.	.	.	.	.	.	.	.	.	.
=86	=86	=86	=86	=86	=86	=86	=86	=86	=86	=86	=86
4E\	.	1r	1r	4r	.	1r	.	1r	.	4e/	-rat
!	!	!	!	!LO:TX:a:t=P:problem=pominięty fragment	!	!	!	!	!	!	!
4r	.	.	.	2.ryy	.	.	.	.	.	4r	.
2r	.	.	.	.	.	.	.	.	.	2r	.
!	!	!	!	!	!	!	!	!	!	!LO:LB:g=original	!
=87||	=87||	=87	=87	=87||	=87||	=87	=87	=87||	=87||	=87||	=87||
*M4/4	*	*M2/2	*M4/4	*M2/2	*	*M4/4	*	*M4/4	*	*M4/4	*
*met(c)	*	*met(c|)	*met(c)	*met(c|)	*	*met(c)	*	*met(c)	*	*met(c)	*
!	!	!LO:TX:a:t=P:problem=w źródle metrum alla breve	!	!LO:TX:a:t=P:problem=w źródle metrum alla breve	!	!	!	!	!	!	!
!LO:TX:a:Bi:t=Tutti	!	!	!LO:TX:a:Bi:t=allegro	!	!	!	!	!	!	!	!
!	!	!LO:TX:b:Bi:t=Caput pulchra ut luna:dur=3w:ext=s:problem=text with extention lines	!	!	!	!	!	!	!	!	!
4G\	.	8d/L	8g/L	2r	.	2r	.	2r	.	2r	.
.	.	16d/L	16g/L	.	.	.	.	.	.	.	.
.	.	16d/JJ	16g/JJ	.	.	.	.	.	.	.	.
!	!	!	!LO:LB:g=original	!	!	!	!	!	!	!	!
8r	.	8g/L	8b\L	.	.	.	.	.	.	.	.
8F#\	6	8a/J	8dd\J	.	.	.	.	.	.	.	.
4G\	.	4b\	4gg\	8G\	Ca-	8G/	Ca-	8d\	Ca-	8b\	Ca-
.	.	.	.	8G\	-put	8G/	-put	8d\	-put	8b\	-put
!	!	!	!	!LO:LB:g=original	!	!	!	!	!	!	!
8r	.	4r	4r	8F#\	pul-	8A/	pul-	8d\	pul-	8a\	pul-
8D/	.	.	.	16F#\	-chra	16A/	-chra	16d\	-chra	16a\	-chra
.	.	.	.	16F#\	ut	16A/	ut	16d\	ut	16a\	ut
!	!	!LO:LB:g=original	!	!	!	!	!	!	!	!	!
=88	=88	=88	=88	=88	=88	=88	=88	=88	=88	=88	=88
4GG/	.	8d/L	8g/L	8G\	lu-	8B\	lu-	8d\	lu-	8b\	lu-
.	.	16d/L	16g/L	8G\	-na	8G/	-na	8d\	-na	8b\	-na
.	.	16d/JJ	16g/JJ	.	.	.	.	.	.	.	.
8r	.	8g/L	8b\L	4r	.	4r	.	4r	.	4r	.
8F#\	6	8a/J	8dd\J	.	.	.	.	.	.	.	.
4G\	.	4b\	4gg\	8G\	Ca-	8G/	Ca-	8d\	Ca-	8b\	ca-
.	.	.	.	8G\	-put	8G/	-put	8d\	-put	8b\	-put
8r	.	4r	4r	8F#\	pul-	8A/	pul-	8d\	pul-	8a\	pul-
8D\	.	.	.	16F#\	-chra	16A/	-chra	16d\	-chra	16a\	-chra
.	.	.	.	16F#\	ut	16A/	ut	16d\	ut	16a\	ut
!LO:LB:g=original	!	!	!	!	!	!LO:LB:g=original	!	!LO:LB:g=original	!	!	!
=89	=89	=89	=89	=89	=89	=89	=89	=89	=89	=89	=89
4GG/	.	4r	4r	8G\	lu-	8B\	lu-	8d\	lu-	8b\	lu-
.	.	.	.	8G\	-na	8G/	-na	8d\	-na	8b\	-na
8BB/L	.	8dd\L	8gg\L	8BB/	er-	8B\	e-	8g\	er-	8dd\	er-
8BB/J	.	8b\J	8gg\J	8BB/	-ran-	8d\	-ran-	8g\	-ran-	8dd\	-ran-
8C/L	.	8ee\L	8gg\L	8C/	-tes	8e\	-tes	8g\	-tes	8cc\	-tes
!	!	!	!	!	!	!	!LO:MO:mod=col-	!	!	!	!
8C/J	.	8cc\J	8gg\J	8C/	col-	8e\	co-	8g\	col-	8b\	col-
*	*	*	*	*	*	*	*	*	*	*custos:a	*
!	!	!	!	!	!	!	!	!	!	!LO:LB:g=original	!
!	!	!	!	!	!	!	!LO:MO:mod=-lu-	!	!	!	!
4D/	4	8a/L	4ff#\	4D/	-lu-	(>8.d\L	-ru-	4f#\	-lu-	4a\	-lus-
.	3	8a/J	.	.	.	.	.	.	.	.	.
.	.	.	.	.	.	16c\Jk)	.	.	.	.	.
=90	=90	=90	=90	=90	=90	=90	=90	=90	=90	=90	=90
!	!	!	!	!LO:TX:a:t=P:problem=w źródle mocno skompresowany zapis następnych 4 taktów	!	!	!	!	!	!	!
!	!	!	!	!	!	!	!LO:MO:mod=-strat	!	!	!	!
4GG/	.	8b/L	8gg\L	4GG/	-strat	4B\	-scat	4g\	-strat	4g/	-trat
.	.	16g/L	16b\L	.	.	.	.	.	.	.	.
.	.	16g/JJ	16b\JJ	.	.	.	.	.	.	.	.
!	!	!	!	!	!	!	!	!LO:TX:a:t=P:problem=pominięty fragment	!	!	!
4r	.	8g/L	8b\L	4r	.	4r	.	4ryy	.	4r	.
.	.	8b/J	8dd\J	.	.	.	.	.	.	.	.
8c\L	.	4cc\	4ee\	2r	.	2r	.	2r	.	2r	.
16c\L	.	.	.	.	.	.	.	.	.	.	.
16c\JJ	.	.	.	.	.	.	.	.	.	.	.
8c\L	.	4r	4r	.	.	.	.	.	.	.	.
8B\J	.	.	.	.	.	.	.	.	.	.	.
=91	=91	=91	=91	=91-	=91-	=91-	=91-	=91-	=91-	=91-	=91-
4A\	.	8a/L	8cc\L	0r	.	1r	.	0r	.	0r	.
.	.	16f#/L	16a\L	.	.	.	.	.	.	.	.
.	.	16f#/JJ	16a\JJ	.	.	.	.	.	.	.	.
4r	.	8f#/L	8a\L	.	.	.	.	.	.	.	.
.	.	8a/J	8cc\J	.	.	.	.	.	.	.	.
8B\L	.	4b\	4dd\	.	.	.	.	.	.	.	.
16B\L	.	.	.	.	.	.	.	.	.	.	.
16B\JJ	.	.	.	.	.	.	.	.	.	.	.
8B\L	.	4r	4r	.	.	.	.	.	.	.	.
8A\J	.	.	.	.	.	.	.	.	.	.	.
=92	=92	=92	=92	=92	=92	=92	=92	=92	=92	=92	=92
!	!	!	!	!	!	!LO:TX:a:t=P:problem=pominięty fragment	!	!	!	!	!
4G\	.	8g/L	8b/L	.	.	1ryy	.	.	.	.	.
.	.	16d/L	16g/L	.	.	.	.	.	.	.	.
.	.	16d/JJ	16g/JJ	.	.	.	.	.	.	.	.
!	!	!LO:TX:a:t=P:problem=mixed beam	!	!	!	!	!	!	!	!	!
8r	.	8d/L	8b\L	.	.	.	.	.	.	.	.
8G\	.	8b\J	8ee\J	.	.	.	.	.	.	.	.
8C/L	.	16cc\LL	16ee\LL	.	.	.	.	.	.	.	.
.	.	16b\	16dd\	.	.	.	.	.	.	.	.
16BB/L	.	16a\	16cc\	.	.	.	.	.	.	.	.
16C/JJ	.	16g\JJ	16b\JJ	.	.	.	.	.	.	.	.
8D/L	.	4f#/	8.a/L	.	.	.	.	.	.	.	.
8DD/J	.	.	.	.	.	.	.	.	.	.	.
.	.	.	16g/Jk	.	.	.	.	.	.	.	.
=93	=93	=93	=93	=93-	=93-	=93-	=93-	=93-	=93-	=93	=93
!	!	!LO:TX:a:t=P:problem=znak początku repetycji	!	!	!	!	!	!	!	!	!
4GG/	.	8g/L	8g/L	2r	.	2r	.	2r	.	2r	.
!	!	!LO:TX:a:Bi:t=repete	!	!	!	!	!	!	!	!	!
.	.	16d/L	16d/L	.	.	.	.	.	.	.	.
.	.	16d/JJ	16d/JJ	.	.	.	.	.	.	.	.
!	!	!LO:SIC:s=8d:v	!	!	!	!	!	!	!	!	!
8r	.	8e/L	8f#/L	.	.	.	.	.	.	.	.
8C#X/	6	8f#/J	8a/J	.	.	.	.	.	.	.	.
4D/	.	4g/	4dd\	8D/	Ca-	8d\	Ca-	8f#\	Ca-	8b\	ca-
.	.	.	.	8D/	-put	8d\	-put	8f#\	-put	8a\	-put
8r	.	4r	4r	8AA/	pul-	8e\	pul-	8e\	pul-	8a\	pul-
8A\	.	.	.	16AA/	-chra	16e\	-chra	16e\	-chra	16a\	-chra
.	.	.	.	16AA/	ut	16e\	ut	16e\	ut	16a\	ut
!	!	!LO:TX:a:t=P:problem=znak końca repetycji	!	!	!	!	!	!	!	!	!
!LO:LB:g=original	!	!	!LO:LB:g=original	!	!	!	!	!	!	!	!
=94	=94	=94	=94	=94	=94	=94	=94	=94	=94	=94	=94
*	*	*rep	*	*	*	*	*	*	*	*	*
!	!	!LO:TX:a:t=P:problem=powtórzenie taktu oznaczone znakami repetycji	!	!	!	!	!	!	!	!	!
4D/	.	8g/L	8d/L	8D/	lu-	8f#\	lu-	8f#\	lu-	8a\	lu-
.	.	16d/L	16d/L	8D/	-na	8d\	-na	8f#\	-na	8a\	-na
.	.	16d/JJ	16d/JJ	.	.	.	.	.	.	.	.
!	!	!	!	!	!	!	!	!LO:LB:g=original	!	!	!
!	!	!LO:SIC:s=8d:v	!	!	!	!	!	!	!	!	!
8r	.	8e/L	8f#/L	4r	.	4r	.	4r	.	4r	.
8C#X/	6	8f#/J	8a/J	.	.	.	.	.	.	.	.
*	*	*	*	*	*ij	*	*	*	*	*	*
!	!	!	!	!	!	!	!	!	!	!LO:TX:a:t=P:problem=w źródle skreślony tekst 'errantes coll'; poprawka skryptora	!
4D/	.	4g/	4dd\	8D\	Ca-	8d\	ca-	8f#\	Ca-	8a\	ca-
.	.	.	.	8D\	-put	8d\	-put	8f#\	-put	8a\	-put
*	*	*	*	*	*	*custos:e	*	*	*	*	*
!	!	!	!	!	!	!LO:PB:g=original	!	!	!	!	!
8r	.	4r	4r	8A\	pul-	8e\	pul-	8e\	pul-	8a\	pul-
8A\	.	.	.	16A\	-chra	16e\	-chra	16e\	-chra	16a\	-chra
.	.	.	.	16A\	ut	16e\	ut	16e\	ut	16a\	ut
*	*	*	*	*	*Xij	*	*	*	*	*	*
*	*	*Xrep	*	*	*	*	*	*	*	*	*
!	!	!	!	!LO:LB:g=original	!	!	!	!	!	!	!
=95	=95	=95	=95	=95	=95	=95	=95	=95	=95	=95	=95
4D/	.	4r	4r	8D\	lu-	8f#\	lu-	8f#\	lu-	8a\	lu-
.	.	.	.	8D\	-na	8d\	-na	8f#\	-na	8a\	-na
!	!	!	!	!	!	!	!	!	!	!LO:LB:g=original	!
8F#\L	6	8ff#\L	8aa\L	8F#\	er-	8A\	e-	8d\	er-	8a\	er-
8F#\J	.	8dd\J	8aa\J	8F#\	-ran-	8A\	-ran-	8d\	-ran-	8a\	-ran-
8G\L	.	8gg\L	16bb\LL	8G\	-tes	8B\	-tes	8d\	-tes	8b\	-tes
.	.	.	16aa\	.	.	.	.	.	.	.	.
!	!	!	!	!	!	!	!LO:MO:mod=col-	!	!	!	!
8G\J	.	8b\	16gg\	8G\	col-	8B\	co-	8d\	col-	8b\	col-
.	.	.	16ff#\JJ	.	.	.	.	.	.	.	.
!LO:TX:a:t=P:problem=mixed beam	!	!	!	!LO:TX:a:t=P:problem=mixed beam	!	!	!	!	!	!	!
!	!	!LO:SIC:s=8.cc#:v	!	!	!	!	!LO:MO:mod=-lu-	!	!	!	!
8A\L	.	8.cc\	16ee\LL	8A\L	-lu-	4A/	-ru-	4c#X\	-lu-	4a\	-lu-
.	.	.	16gg\	.	.	.	.	.	.	.	.
8AA/J	.	.	16ff#\	8AA/J	.	.	.	.	.	.	.
.	.	16cc#i\Jk	16ee\JJ	.	.	.	.	.	.	.	.
=96	=96	=96	=96	=96	=96	=96	=96	=96	=96	=96	=96
!	!	!LO:TX:a:t=P:problem=mixed beam	!	!	!	!	!	!	!	!	!
!	!	!	!	!	!	!	!LO:MO:mod=-:P=strat	!	!	!	!
4D/	.	8dd\L	8dd\L	4D\	-strat	4A/	-scat	4d\	-strat	4f#/	-strat
.	.	16d/L	16g\L	.	.	.	.	.	.	.	.
.	.	16d/JJ	16g\JJ	.	.	.	.	.	.	.	.
!	!	!LO:LB:g=original	!	!	!	!	!	!	!	!	!
8r	.	8g/L	8b\L	4r	.	4r	.	4r	.	4r	.
8F#\	6	8a/J	8dd\J	.	.	.	.	.	.	.	.
4G\	.	4b\	4gg\	8G\	Ca-	8G/	ca-	8d\	Ca-	8b\	ca-
.	.	.	.	8G\	-put	8G/	-put	8d\	-put	8b\	-put
8r	.	4r	4r	8F#\	pul-	8A\	pul-	8d\	pul-	8a\	pul-
!	!	!	!	!	!	!	!	!LO:LB:g=original	!	!	!
8D\	.	.	.	16F#\	-chra	16A\	-chra	16d\	-chra	16a\	-chra
.	.	.	.	16F#\	ut	16A\	ut	16d\	ut	16a\	ut
=97	=97	=97	=97	=97	=97	=97	=97	=97	=97	=97	=97
4GG/	.	8d/L	8g/L	8G\	lu-	8B\	lu-	8d\	lu-	8b\	lu-
.	.	16d/L	16g/L	8G\	-na	8G/	-na	8d\	-na	8b\	-na
.	.	16d/JJ	16g/JJ	.	.	.	.	.	.	.	.
8r	.	8g/L	8b\L	4r	.	4r	.	4r	.	4r	.
8F#\	6	8a/J	8dd\J	.	.	.	.	.	.	.	.
!	!	!	!	!	!	!LO:TX:a:t=P:problem=w źródle dodatkowa kreska taktowa	!	!	!	!	!
!	!	!	!	!	!	!LO:LB:g=original	!	!	!	!	!
*	*	*	*	*	*ij	*	*	*	*	*	*
4G\	.	4b\	4gg\	8G\	Ca-	8G/	ca-	8d\	Ca-	8b\	ca-
.	.	.	.	8G\	-put	8G/	-put	8d\	-put	8b\	-put
8r	.	4r	4r	8F#\	pul-	8A\	pul-	8d\	pul-	8a\	pul-
8D/	.	.	.	16F#\	-chra	16A\	-chra	16d\	-chra	16a\	-chra
.	.	.	.	16F#\	ut	16A\	ut	16d\	ut	16a\	ut
!	!	!	!	!	!	!	!	!	!	!LO:LB:g=original	!
=98	=98	=98	=98	=98	=98	=98	=98	=98	=98	=98	=98
4GG/	.	4r	4r	8G\	lu-	8B\	lu-	8d\	lu-	8b\	lu-
.	.	.	.	8G,\	-na	8G/	-na	8d\	-na	8b\	-na
*	*	*	*	*	*Xij	*	*	*	*	*	*
8BB/L	6	8dd\L	8gg\L	8BB/	er-	8B\	e-	8g\	er-	8dd\	er-
8BB/J	.	8b\J	8gg\J	8BB/	-ran-	8d\	-ran-	8g\	-ran-	8dd\	-ran-
8C/L	.	8ee\L	8gg\L	8C/	-tes	8e\	-tes	8g\	-tes	8cc\	-tes
!	!	!	!	!	!	!	!LO:MO:mod=col-	!	!	!LO:SIC:s=8cc:v	!
8C/J	.	8cc\J	8gg\J	8C/	col-	8e\	co-	8g\	col-	8b\	col-
!	!	!	!	!	!	!	!LO:MO:mod=-lu-	!	!	!	!
4D/	4	8a/L	4ff#\	4D/	-lu-	(>8.dL\	-rus-	4f#\	-lu-	4a\	-lu-
.	3	8a/J	.	.	.	.	.	.	.	.	.
.	.	.	.	.	.	16c)Jk\	.	.	.	.	.
!LO:LB:g=original	!	!	!	!	!	!	!	!LO:LB:g=original	!	!	!
=99	=99	=99	=99	=99	=99	=99	=99	=99	=99	=99	=99
!	!	!	!	!	!	!	!LO:MO:mod=-strat	!	!	!	!
4GG/	.	8b/L	8gg\L	4GG/	-strat	4B\	-cat	8g\	-strat	4g\	-strat
.	.	16g/L	16b\L	.	.	.	.	4f#\	.	.	.
.	.	16g/JJ	16b\JJ	.	.	.	.	.	.	.	.
4r	.	8g/L	8b\L	4r	.	4r	.	.	.	4r	.
.	.	8b/J	8dd\J	.	.	.	.	8r	.	.	.
8c\L	.	4cc\	4ee\	2r	.	2r	.	2r	.	2r	.
16c\L	.	.	.	.	.	.	.	.	.	.	.
16c\JJ	.	.	.	.	.	.	.	.	.	.	.
8c\L	.	4r	4r	.	.	.	.	.	.	.	.
8B\J	.	.	.	.	.	.	.	.	.	.	.
.	.	.	.	.	.	.	.	.	.	.	.
!	!	!	!	!LO:LB:g=original	!	!	!	!	!	!	!
=100	=100	=100	=100	=100	=100	=100	=100	=100-	=100-	=100-	=100-
!	!	!	!	!	!	!	!	!LO:TX:a:t=P:problem=w źródle nad pauzą tajemniczy znak	!	!	!
!	!	!	!	!LO:N:vis=0	!	!	!	!	!	!	!
4A\	.	8a/L	8cc\L	1r	.	1r	.	1r	.	1r	.
.	.	16f#/L	16a\L	.	.	.	.	.	.	.	.
.	.	16f#/JJ	16a\JJ	.	.	.	.	.	.	.	.
4r	.	8f#/L	8a\L	.	.	.	.	.	.	.	.
.	.	8a/J	8cc\J	.	.	.	.	.	.	.	.
8B\L	.	4b\	4dd\	.	.	.	.	.	.	.	.
16B\L	.	.	.	.	.	.	.	.	.	.	.
16B\JJ	.	.	.	.	.	.	.	.	.	.	.
8B\L	.	4r	4r	.	.	.	.	.	.	.	.
8A\J	.	.	.	.	.	.	.	.	.	.	.
!	!	!	!LO:LB:g=original	!	!	!	!	!	!	!	!
=101	=101	=101	=101	=101-	=101-	=101-	=101-	=101-	=101-	=101-	=101-
4G\	.	8g/L	8b/L	2r	.	2r	.	2r	.	2r	.
.	.	16d/L	16g/L	.	.	.	.	.	.	.	.
.	.	16d/JJ	16g/JJ	.	.	.	.	.	.	.	.
8r	.	8g/L	8b\L	.	.	.	.	.	.	.	.
8G\	.	8b/J	8dd\J	.	.	.	.	.	.	.	.
!	!	!	!	!LO:TX:a:t=P:problem=w źródle pominięta pauza	!	!	!	!	!	!	!
8C/L	.	16cc\LL	16ee\LL	8ryy	.	8r	.	8r	.	8r	.
.	.	16b\	16dd\	.	.	.	.	.	.	.	.
!	!	!	!	!	!	!	!LO:MO:mod=col-	!	!	!	!
16BB/L	.	16a\	16cc\	8C/	col-	8c\	co-	8g\	col-	8ee\	col-
16C/JJ	.	16g\JJ	16b\JJ	.	.	.	.	.	.	.	.
!	!	!	!LO:TX:a:t=P:problem=mixed beam	!	!	!	!	!	!	!	!
!	!	!	!	!	!	!	!LO:MO:mod=-lu-	!	!	!	!
8D/L	4	8.a/L	8a/L	4D/	-lu-	8.d\L	-ru-	4f#\	-lu-	4a\	-lu-
.	3	.	.	.	.	.	.	.	.	.	.
8DD/J	.	.	8ff#\J	.	.	.	.	.	.	.	.
.	.	16a/Jk	.	.	.	16c\Jk	.	.	.	.	.
!	!	!	!	!	!	!LO:LB:g=original	!	!	!	!	!
=102	=102	=102	=102	=102	=102	=102	=102	=102	=102	=102	=102
!	!	!	!	!	!	!	!LO:MO:mod=-strat	!	!	!	!
4GG/	.	4b/	4gg\	4GG/	-strat	4B\	-scat	4g\	-strat	4g/	-strat
4r	.	4r	4r	4r	.	4r	.	4r	.	4r	.
2r	.	2r	2r	2r	.	2r	.	2r	.	2r	.
!LO:TX:a:t=P:problem=w źródle ozdobna kreska końcowa	!	!LO:TX:a:t=P:problem=w źródle ozdobna kreska końcowa	!LO:TX:a:t=P:problem=w źródle ozdobna kreska końcowa	!LO:TX:a:t=P:problem=w źródle ozdobna kreska końcowa &colon;||&colon;	!	!LO:TX:a:t=P:problem=w źródle ozdobna kreska końcowa	!	!LO:TX:a:t=P:problem=w źródle ozdobna kreska końcowa &colon;||&colon;	!	!LO:TX:a:t=P:problem=w źródle ozdobna kreska końcowa	!
==	==	==	==	==	==	==	==	==	==	==	==
*-	*-	*-	*-	*-	*-	*-	*-	*-	*-	*-	*-
!!!system-decoration: [(s1,s2,s3,s4)][(s5,s6)]s7
!!!RDF**kern: > = above
!!!RDF**kern: < = below
!!!RDF**kern: i = editorial accidental
!!!EED: Wojciech Jakubiak-Danek
!!!EEV: 2020-11-06
!!!ENC: Berenika Jozajtis
!!!END: 2020-04-29
!!!YEC: Copyright 2022 Narodowy Instytut Fryderyka Chopina (https://polishscores.org)
!!!YEM: License CC-BY-4.0 (https://creativecommons.org/licenses/by/4.0)
